!!!ONB: MCCC : IJH0419_03 : Extracted Monophonic Melody
!!!COM: Haydn, Joseph
!!!OPR: String Quartet in C major
!!!OMV: 3
!!!SCT: Hob.III:45 ; Op.50 No.2
!!!ODT: 1787///
**kern
*thru
*k[]
*C:
*clefG
*M3/4
4g
=1
4gg
4ee
4cc
=2
2.g[
=3
2g]
4cc
=4
4ee
4dd
4g
=5
4aa
4ff
4dd
=6
2b
4cc
=7
4dd
4ee-
4b
=8
4dd
4cc
4g
=9
4bb-
4gg
4ee
=10
2cc#
4dd
=11
4ee
4aa
4gg
=12
4ff
4ee
4r
=13
2r
4ff
=14
4ee
4cc#
4r
=15
2r
4ccc#
=16
4ddd
4aa
4ff
=17
4ee
4gg
4cc#
=18
2.ee
=19
2dd
4r
=20
2r
4f
=21
4aa
4ff
4dd
=22
2.a[
=23
2a]
4f
=24
4aa
4ff
4dd
=25
4gg
4ee
4cc
=26
2.g[
=27
2g]
4cc
=28
4ee
4dd
4g
=29
4aa
4ff
4dd
=30
2b
4cc
=31
4dd
4ee-
4b
=32
4dd
4cc
4r
=33
4ff
4aa
4dd
=34
4ff
4ee
4r
=35
4aa
4ccc
4ff#
=36
4aa
4gg
4r
=37
2.r
=38
4r
4ee
4ff
=39
4dd
4ee
4cc
=40
4ee
4dd
4r
=41
2.r
=42
4r
4aa
4gg
=43
4ff
4ee
4dd
=44
4cc
4r
4cc
=45
4ccc
4aa-
4ff
=46
4ee
4r
4cc
=47
4ccc
4bb-
4gg
=48
4aa-
4r
4ff
=49
4fff
4ddd
4bb
=50
4ccc
2r
=51
2.r
=52
2r
4g
=53
4a
4cc
4ee
=54
4ee
2r
=55
2.r
=56
2r
4cc
=57
4ccc
4aa
4ff#
=58
4gg
4r
4dd
=59
4ff
4dd
4ff
=60
4ee
4r
4ccc
=61
4ddd
4bb
4ddd
=62
4ccc
4r
4ee
=63
4ff
4dd
4ff
=64
4ee
4r
4ee
=65
4ccc
4aa
4ff#
=66
4gg
4r
4g
=67
4cc
4ee
4gg
=68
4gg
2r
=69
2r
4g
=70
4cc
4ee
4gg
=71
4gg
2r
=72
2.r
=73
2.r
=74
2r
4g
=75
4cc
4ee
4gg
=76
4gg
4ee
4a
=77
4ff
4dd
4b-
=78
4bb-
4gg
4cc
=79
4aa
4ff
4cc
=80
4ccc
4aa
4ee-
=81
2ee
8dd
8b
=82
4cc
2r
==
*-
